X: 1
T: Pat Lyons'
R: reel
M: 4/4
L: 1/8
K: Ddor
DE|:F2(3GFE FGAB|cAfd cAGc|ADED CDEG|AGcG AGEC|
F2(3GFE FDAB|cAfd cAG2|Ad~d2 cAGE|1 CEGE FDDE:|2 CEGE FDD2|
|:Ad{e}d^c defd|e=c~c2 gce^c|Ad{e}d^c defa|ge^cd eddc|
Ad{e}d^c defd|e=c~c2 gceA|(3fga ge fde^c|1 Add^c d3c:|2 Add^c d2DE||

composer: Sean Ryan
